source/images/icons/news.svg

<?xml version="1.0" encoding="UTF-8"?>
<svg width="36px" height="36px" viewBox="0 0 36 36" version="1.1" xmlns="http://www.w3.org/2000/svg" xmlns:xlink="http://www.w3.org/1999/xlink">
    <!-- Generator: Sketch 41.2 (35397) - http://www.bohemiancoding.com/sketch -->
    <title>news</title>
    <desc>Created with Sketch.</desc>
    <defs>
        <linearGradient x1="50%" y1="0%" x2="50%" y2="100%" id="linearGradient-1">
            <stop stop-color="#34BCFF" offset="0%"></stop>
            <stop stop-color="#149CE0" offset="100%"></stop>
        </linearGradient>
    </defs>
    <g id="Landing-page" stroke="none" stroke-width="1" fill="none" fill-rule="evenodd">
        <g id="Desktop-HD" transform="translate(-702.000000, -3348.000000)" fill="url(#linearGradient-1)">
            <path d="M712.798912,3377.70904 L712.798912,3378.59692 C712.797893,3379.97748 712.280817,3381.23981 711.427584,3382.19656 L730.777766,3382.19656 L732.596919,3382.1915 C734.441844,3382.1915 736.193151,3380.45291 736.193151,3378.59692 L736.193151,3376.79578 L736.196556,3349.79982 L712.798912,3349.79982 L712.798912,3355.19927 L710.999094,3355.19927 L710.999094,3348 L737.996375,3348 L737.996375,3378.59692 C737.994178,3381.57319 735.593509,3384 732.596919,3384 L730.777766,3384 L707.598868,3383.99641 C707.532707,3383.9988 707.466229,3384 707.399456,3384 C704.402865,3384 702.002197,3381.57319 702,3378.59692 L702,3355.19927 L711.899003,3355.19927 L712.798912,3355.19927 L712.798912,3377.70904 Z M710.999094,3376.82116 L710.995688,3376.82116 L710.995688,3378.59692 C710.995688,3380.45291 709.244382,3382.1915 707.399456,3382.1915 C705.55453,3382.1915 703.803224,3380.45291 703.803224,3378.59692 L703.799819,3376.82116 L703.799819,3356.99909 L710.999094,3356.99909 L710.999094,3376.82116 Z M716.39855,3353.39946 L725.397644,3353.39946 L725.397644,3362.39855 L716.39855,3362.39855 L716.39855,3353.39946 Z M727.197462,3353.39946 L732.596919,3353.39946 L732.596919,3355.19927 L727.197462,3355.19927 L727.197462,3353.39946 Z M727.197462,3356.99909 L732.596919,3356.99909 L732.596919,3358.79891 L727.197462,3358.79891 L727.197462,3356.99909 Z M716.39855,3374.99728 L728.997281,3374.99728 L728.997281,3376.7971 L716.39855,3376.7971 L716.39855,3374.99728 Z M727.197462,3360.59873 L732.596919,3360.59873 L732.596919,3362.39855 L727.197462,3362.39855 L727.197462,3360.59873 Z M716.39855,3364.19837 L732.596919,3364.19837 L732.596919,3365.99819 L716.39855,3365.99819 L716.39855,3364.19837 Z M716.39855,3367.79801 L732.596919,3367.79801 L732.596919,3369.59782 L716.39855,3369.59782 L716.39855,3367.79801 Z M716.39855,3371.39764 L732.596919,3371.39764 L732.596919,3373.19746 L716.39855,3373.19746 L716.39855,3371.39764 Z" id="news"></path>
        </g>
    </g>
</svg>

<svg width="36" height="36" viewBox="0 0 36 36" xmlns="http://www.w3.org/2000/svg"><title>news</title><defs><linearGradient x1="50%" y1="0%" x2="50%" y2="100%" id="a"><stop stop-color="#34BCFF" offset="0%"/><stop stop-color="#149CE0" offset="100%"/></linearGradient></defs><path d="M712.799 3377.709v.888a5.397 5.397 0 0 1-1.371 3.6h19.35l1.819-.006c1.845 0 3.596-1.738 3.596-3.594v-1.801l.004-26.996h-23.398v5.4h-1.8v-7.2h26.997v30.597a5.398 5.398 0 0 1-5.4 5.403h-1.818l-23.18-.004a5.398 5.398 0 0 1-5.599-5.4l.001-23.397h10.799v22.51zm-1.8-.888h-.003v1.776c0 1.856-1.752 3.594-3.597 3.594-1.844 0-3.596-1.738-3.596-3.594l-.003-1.776V3357h7.2v19.822zm5.4-23.422h8.999v9h-9v-9zm10.798 0h5.4v1.8h-5.4v-1.8zm0 3.6h5.4v1.8h-5.4v-1.8zm-10.798 17.998h12.598v1.8H716.4v-1.8zm10.798-14.398h5.4v1.8h-5.4v-1.8zm-10.798 3.6h16.198v1.8h-16.198v-1.8zm0 3.599h16.198v1.8h-16.198v-1.8zm0 3.6h16.198v1.8h-16.198v-1.8z" transform="translate(-702 -3348)" fill="url(#a)" fill-rule="evenodd"/></svg>
